Skins/royal-surge.surge-skin/assets/bmp00113.svg

<?xml version="1.0" encoding="UTF-8" standalone="no"?>
<svg
   xmlns:dc="http://purl.org/dc/elements/1.1/"
   xmlns:cc="http://creativecommons.org/ns#"
   xmlns:rdf="http://www.w3.org/1999/02/22-rdf-syntax-ns#"
   xmlns:svg="http://www.w3.org/2000/svg"
   xmlns="http://www.w3.org/2000/svg"
   xmlns:xlink="http://www.w3.org/1999/xlink"
   xmlns:sodipodi="http://sodipodi.sourceforge.net/DTD/sodipodi-0.dtd"
   xmlns:inkscape="http://www.inkscape.org/namespaces/inkscape"
   width="36"
   height="82"
   viewbox="0 0 36 78"
   version="1.1"
   id="svg47"
   sodipodi:docname="bmp00113.svg"
   inkscape:version="1.0.1 (3bc2e813f5, 2020-09-07)">
  <metadata
     id="metadata51">
    <rdf:RDF>
      <cc:Work
         rdf:about="">
        <dc:format>image/svg+xml</dc:format>
        <dc:type
           rdf:resource="http://purl.org/dc/dcmitype/StillImage" />
        <dc:title />
      </cc:Work>
    </rdf:RDF>
  </metadata>
  <sodipodi:namedview
     pagecolor="#414141"
     bordercolor="#666666"
     borderopacity="1"
     objecttolerance="10"
     gridtolerance="10"
     guidetolerance="10"
     inkscape:pageopacity="0"
     inkscape:pageshadow="2"
     inkscape:window-width="3753"
     inkscape:window-height="2137"
     id="namedview49"
     showgrid="false"
     inkscape:zoom="32"
     inkscape:cx="17.469342"
     inkscape:cy="25.921937"
     inkscape:window-x="-8"
     inkscape:window-y="-8"
     inkscape:window-maximized="1"
     inkscape:current-layer="svg47"
     inkscape:document-rotation="0"
     inkscape:showpageshadow="false" />
  <defs
     id="defs6">
    <rect
       width="36"
       height="78"
       id="artboard_1"
       x="0"
       y="0" />
    <clipPath
       id="clip_1">
      <use
         xlink:href="#artboard_1"
         clip-rule="evenodd"
         id="use3"
         x="0"
         y="0"
         width="100%"
         height="100%" />
    </clipPath>
  </defs>
  <path
     d="M 0,21.000002 7.9127724e-7,39.947351 C 8.115664e-7,40.528756 0.44771833,41 1.0000009,41 H 34.998997 c 0.552271,0 0.99999,-0.471244 0.99999,-1.052649 L 36,21 Z"
     id="path23"
     fill="none"
     fill-rule="evenodd"
     stroke="#4e4752"
     stroke-width="0.523524"
     style="fill:#000000;fill-opacity:1;stroke:none" />
  <path
     d="M 36,21 V 1.1052634 C 36,0.4948429 35.55228,7.5435167e-8 35.00001,0 L 1.0009978,9.4832786e-7 C 0.44870602,9.0522201e-7 9.9416884e-4,0.49484401 9.9416884e-4,1.1052644 L 0,21 Z"
     id="path35"
     fill="none"
     fill-rule="evenodd"
     stroke="#4e4752"
     stroke-width="0.536449"
     style="fill:#000000;fill-opacity:1;stroke:none;stroke-width:0.536;stroke-miterlimit:4;stroke-dasharray:none" />
  <path
     d="m 0.4,21.000002 7.8e-7,18.473668 C 0.4000008,40.04054 0.83776902,40.5 1.3777786,40.5 H 34.621243 c 0.539995,0 0.977766,-0.45946 0.977766,-1.02633 L 35.6,21 Z"
     id="path21"
     fill="#655959"
     fill-rule="evenodd"
     stroke="none"
     style="stroke-width:1.02232" />
  <path
     d="m 18.56277,34.5 c 1.80857,0 2.87664,-0.88897 2.87664,-2.38575 0.03102,-1.08752 -0.80702,-2.00319 -1.89302,-2.0684 v -0.09279 c 0.85783,-0.19181 1.46734,-0.95369 1.46616,-1.8327 C 21.01255,26.819377 20.05862,26 18.49782,26 H 15.25 v 8.5 z m -2.25584,-7.562773 h 1.96725 c 1.05415,0 1.67031,0.501093 1.67031,1.366863 0,0.90104 -0.64957,1.36038 -1.93756,1.36038 h -1.7 z m 0,6.626473 v -2.98706 h 1.99602 c 1.3548,0 2.04984,0.50109 2.04984,1.48471 0,0.98363 -0.67091,1.50235 -1.94777,1.50235 z"
     id="path29"
     fill="#e0d2cb"
     fill-rule="evenodd"
     stroke="none"
     style="fill:#e0d2cb" />
  <path
     d="M 35.6,20.4 V 1.452632 C 35.6,0.87127903 35.162232,0.40000007 34.622234,0.4 l -33.2434805,8.2e-7 C 0.83873477,0.40000079 0.4009721,0.87128013 0.4009721,1.452633 L 0.4,20.4 Z"
     id="path33"
     fill="#3d3231"
     fill-rule="evenodd"
     stroke="none"
     style="stroke-width:1.03534" />
  <path
     d="M 0.2489575,268.10625 H 35.751061"
     id="path37"
     fill="none"
     fill-rule="evenodd"
     stroke="#000000"
     stroke-opacity="0.25"
     stroke-width="0.497915"
     stroke-linecap="square" />
  <path
     d="M 1.456,0.4 18,0.40000341 h 16.544 c 0.583244,0 1.056,0.35174684 1.056,1.18559789 V 2.4 C 35.595014,1.57127 35.123624,0.903243 34.544,0.903274 L 18,0.903275 1.456,0.903272 C 0.87634208,0.903241 0.40502332,1.57127 0.4,2.4 V 1.5855913 C 0.4,0.75174925 0.8727878,0.4 1.456,0.4 Z"
     id="path39"
     fill="#ffffff"
     fill-opacity="0.4"
     fill-rule="evenodd"
     stroke="none"
     style="opacity:0.2;fill:#000000;fill-opacity:1;stroke-width:0.988824"
     sodipodi:nodetypes="ccsscccccsc" />
  <path
     d="m 20.7024,14 h 1.11354 L 18.68226,5.5 H 17.63368 L 14.5,14 h 1.11354 l 0.85371,-2.43308 h 3.38144 z M 18.11064,6.87243 h 0.0928 l 1.33253,3.793451 h -2.75601 z"
     id="path41"
     fill="#fce237"
     fill-rule="evenodd"
     stroke="none" />
  <path
     d="m 0.4,21 17.6,3e-6 h 17.6 v 0.499996 L 18,21.5 l -17.6,-3e-6 z"
     id="path4926"
     fill="#ffffff"
     fill-opacity="0.4"
     fill-rule="evenodd"
     stroke="none"
     style="opacity:0.16;fill:#ffffff;fill-opacity:1;stroke-width:1.01657"
     sodipodi:nodetypes="ccccccc" />
  <path
     d="M 0,62.000002 7.9127724e-7,80.947351 C 8.115664e-7,81.528756 0.44771833,82 1.0000009,82 H 34.998997 c 0.552271,0 0.99999,-0.471244 0.99999,-1.052649 L 36,62 Z"
     id="path4928"
     fill="none"
     fill-rule="evenodd"
     stroke="#4e4752"
     stroke-width="0.523524"
     style="fill:#000000;fill-opacity:1;stroke:none" />
  <path
     d="M 36,62 V 42.105263 C 36,41.494843 35.55228,41 35.00001,41 l -33.9990122,10e-7 c -0.55229178,0 -1.00000363116,0.494843 -1.00000363116,1.105263 L 0,62 Z"
     id="path4930"
     fill="none"
     fill-rule="evenodd"
     stroke="#4e4752"
     stroke-width="0.536449"
     style="fill:#000000;fill-opacity:1;stroke:none;stroke-width:0.536;stroke-miterlimit:4;stroke-dasharray:none" />
  <path
     d="m 0.4,62.000002 7.8e-7,18.473668 C 0.4000008,81.04054 0.83776902,81.5 1.3777786,81.5 H 34.621243 c 0.539995,0 0.977766,-0.45946 0.977766,-1.02633 L 35.6,62 Z"
     id="path4932"
     fill="#655959"
     fill-rule="evenodd"
     stroke="none"
     style="stroke-width:1.02232;fill:#3d3231" />
  <path
     d="m 18.56277,75.5 c 1.80857,0 2.87664,-0.88897 2.87664,-2.38575 0.03102,-1.08752 -0.80702,-2.00319 -1.89302,-2.0684 v -0.09279 c 0.85783,-0.19181 1.46734,-0.95369 1.46616,-1.8327 C 21.01255,67.819377 20.05862,67 18.49782,67 H 15.25 v 8.5 z m -2.25584,-7.562773 h 1.96725 c 1.05415,0 1.67031,0.501093 1.67031,1.366863 0,0.90104 -0.64957,1.36038 -1.93756,1.36038 h -1.7 z m 0,6.626473 v -2.98706 h 1.99602 c 1.3548,0 2.04984,0.50109 2.04984,1.48471 0,0.98363 -0.67091,1.50235 -1.94777,1.50235 z"
     id="path4934"
     fill="#e0d2cb"
     fill-rule="evenodd"
     stroke="none"
     style="fill:#fce237" />
  <path
     d="M 35.6,61.4 V 42.452631 C 35.6,41.871277 35.162232,41.4 34.622234,41.4 l -33.2434805,1e-6 c -0.54001873,0 -0.9777814,0.471277 -0.9777814,1.052631 L 0.4,61.4 Z"
     id="path4936"
     fill="#3d3231"
     fill-rule="evenodd"
     stroke="none"
     style="fill:#655959;stroke-width:1.03534" />
  <path
     d="m 1.456,41.4 16.544,3e-6 h 16.544 c 0.583244,0 1.056,0.351747 1.056,1.185598 V 43.4 c -0.005,-0.82873 -0.476376,-1.496757 -1.056,-1.496726 l -16.544,10e-7 -16.544,-3e-6 C 0.87634208,41.903241 0.40502332,42.57127 0.4,43.4 V 42.585591 C 0.4,41.751749 0.8727878,41.4 1.456,41.4 Z"
     id="path4938"
     fill="#ffffff"
     fill-opacity="0.4"
     fill-rule="evenodd"
     stroke="none"
     style="opacity:0.25;fill:#ffffff;fill-opacity:1;stroke-width:0.988824"
     sodipodi:nodetypes="ccsscccccsc" />
  <path
     d="m 20.7024,55 h 1.11354 L 18.68226,46.5 H 17.63368 L 14.5,55 h 1.11354 l 0.85371,-2.43308 h 3.38144 z m -2.59176,-7.12757 h 0.0928 l 1.33253,3.793451 h -2.75601 z"
     id="path4940"
     fill="#fce237"
     fill-rule="evenodd"
     stroke="none"
     style="fill:#e0d2cb" />
  <path
     d="m 0.4,62 17.6,3e-6 h 17.6 v 0.499996 L 18,62.5 l -17.6,-3e-6 z"
     id="path4942"
     fill="#ffffff"
     fill-opacity="0.4"
     fill-rule="evenodd"
     stroke="none"
     style="opacity:0.2;fill:#000000;fill-opacity:1;stroke-width:1.01657"
     sodipodi:nodetypes="ccccccc" />
</svg>

<?xml version="1.0" encoding="utf-8"?>
<svg width="36px" height="82px" viewBox="0 0 36 82" version="1.1" xmlns:xlink="http://www.w3.org/1999/xlink" xmlns="http://www.w3.org/2000/svg">
  <defs>
    <path d="M0 0L36 0L36 82L0 82L0 0Z" id="path_1" />
    <rect width="36" height="82" id="artboard_1" />
    <clipPath id="clip_1">
      <use xlink:href="#artboard_1" clip-rule="evenodd" />
    </clipPath>
    <clipPath id="mask_1">
      <use xlink:href="#path_1" />
    </clipPath>
  </defs>
  <g id="bmp00113" clip-path="url(#clip_1)">
    <path d="M0 0L36 0L36 82L0 82L0 0Z" id="Background" fill="none" fill-rule="evenodd" stroke="none" />
    <g clip-path="url(#mask_1)">
      <path d="M0 21L7.91277e-07 39.9473C8.11566e-07 40.5288 0.447718 41 1 41L34.999 41C35.5513 41 35.999 40.5288 35.999 39.9473L36 21L0 21Z" id="path23" fill="#000000" fill-rule="evenodd" stroke="none" />
      <path d="M36 21L36 1.10526C36 0.494843 35.5523 7.54352e-08 35 0L1.001 9.48328e-07C0.448706 9.05222e-07 0.000994169 0.494844 0.000994169 1.10526L0 21L36 21Z" id="path35" fill="#000000" fill-rule="evenodd" stroke="none" />
      <path d="M0.399994 21L0.399995 39.4737C0.399995 40.0405 0.837763 40.5 1.37777 40.5L34.6212 40.5C35.1612 40.5 35.599 40.0405 35.599 39.4737L35.6 21L0.399994 21Z" id="path21" fill="#655959" fill-rule="evenodd" stroke="none" />
      <path d="M18.5628 34.5C20.3713 34.5 21.4394 33.611 21.4394 32.1143C21.4704 31.0267 20.6324 30.1111 19.5464 30.0459L19.5464 29.9531C20.4042 29.7612 21.0137 28.9994 21.0126 28.1204C21.0126 26.8194 20.0586 26 18.4978 26L15.25 26L15.25 34.5L18.5628 34.5ZM16.3069 26.9372L18.2742 26.9372C19.3283 26.9372 19.9445 27.4383 19.9445 28.3041C19.9445 29.2051 19.2949 29.6645 18.0069 29.6645L16.3069 29.6645L16.3069 26.9372ZM16.3069 33.5637L16.3069 30.5766L18.3029 30.5766C19.6577 30.5766 20.3528 31.0777 20.3528 32.0614C20.3528 33.045 19.6819 33.5637 18.405 33.5637L16.3069 33.5637Z" id="path29" fill="#E0D2CB" fill-rule="evenodd" stroke="none" />
      <path d="M35.6 20.4L35.6 1.45263C35.6 0.871279 35.1622 0.4 34.6222 0.4L1.37875 0.400001C0.838729 0.400001 0.400966 0.87128 0.400966 1.45263L0.399994 20.4L35.6 20.4Z" id="path33" fill="#3D3231" fill-rule="evenodd" stroke="none" />
      <path d="M1.45599 0.4L18 0.400003L34.544 0.400003C35.1272 0.400003 35.6 0.75175 35.6 1.5856L35.6 2.4C35.595 1.57127 35.1236 0.903243 34.544 0.903274L18 0.903275L1.45599 0.903272C0.876336 0.903241 0.405017 1.57127 0.399994 2.4L0.399994 1.58559C0.399994 0.751749 0.872782 0.4 1.45599 0.4L1.45599 0.4Z" id="path39" fill="#000000" fill-opacity="0.2" fill-rule="evenodd" stroke="none" />
      <path d="M20.7024 14L21.8159 14L18.6823 5.5L17.6337 5.5L14.5 14L15.6135 14L16.4672 11.5669L19.8487 11.5669L20.7024 14ZM18.1106 6.87243L18.2034 6.87243L19.536 10.6659L16.78 10.6659L18.1106 6.87243Z" id="path41" fill="#FCE237" fill-rule="evenodd" stroke="none" />
      <path d="M0.399994 21L18 21L35.6 21L35.6 22L18 22L0.399994 22L0.399994 21Z" id="path4926" fill="#FFFFFF" fill-opacity="0.16" fill-rule="evenodd" stroke="none" />
      <path d="M0 62L7.91277e-07 80.9473C8.11566e-07 81.5288 0.447718 82 1 82L34.999 82C35.5513 82 35.999 81.5288 35.999 80.9473L36 62L0 62Z" id="path4928" fill="#000000" fill-rule="evenodd" stroke="none" />
      <path d="M36 62L36 42.1053C36 41.4948 35.5523 41 35 41L1.001 41C0.448708 41 0.000995874 41.4948 0.000995874 42.1053L0 62L36 62Z" id="path4930" fill="#000000" fill-rule="evenodd" stroke="none" />
      <path d="M0.399994 62L0.399995 80.4737C0.399995 81.0405 0.837763 81.5 1.37777 81.5L34.6212 81.5C35.1612 81.5 35.599 81.0405 35.599 80.4737L35.6 62L0.399994 62Z" id="path4932" fill="#3D3231" fill-rule="evenodd" stroke="none" />
      <path d="M18.5628 75.5C20.3713 75.5 21.4394 74.611 21.4394 73.1143C21.4704 72.0267 20.6324 71.1111 19.5464 71.0459L19.5464 70.9531C20.4042 70.7613 21.0137 69.9994 21.0126 69.1204C21.0126 67.8194 20.0586 67 18.4978 67L15.25 67L15.25 75.5L18.5628 75.5ZM16.3069 67.9372L18.2742 67.9372C19.3283 67.9372 19.9445 68.4383 19.9445 69.3041C19.9445 70.2051 19.2949 70.6645 18.0069 70.6645L16.3069 70.6645L16.3069 67.9372ZM16.3069 74.5637L16.3069 71.5766L18.3029 71.5766C19.6577 71.5766 20.3528 72.0777 20.3528 73.0613C20.3528 74.045 19.6819 74.5637 18.405 74.5637L16.3069 74.5637Z" id="path4934" fill="#FCE237" fill-rule="evenodd" stroke="none" />
      <path d="M35.6 61.4L35.6 42.4526C35.6 41.8713 35.1622 41.4 34.6222 41.4L1.37875 41.4C0.838729 41.4 0.400966 41.8713 0.400966 42.4526L0.399994 61.4L35.6 61.4Z" id="path4936" fill="#655959" fill-rule="evenodd" stroke="none" />
      <path d="M1.45599 41.4L18 41.4L34.544 41.4C35.1272 41.4 35.6 41.7518 35.6 42.5856L35.6 43.4C35.595 42.5713 35.1236 41.9032 34.544 41.9033L18 41.9033L1.45599 41.9033C0.876336 41.9032 0.405017 42.5713 0.399994 43.4L0.399994 42.5856C0.399994 41.7517 0.872782 41.4 1.45599 41.4L1.45599 41.4Z" id="path4938" fill="#FFFFFF" fill-opacity="0.25" fill-rule="evenodd" stroke="none" />
      <path d="M20.7024 55L21.8159 55L18.6823 46.5L17.6337 46.5L14.5 55L15.6135 55L16.4672 52.5669L19.8487 52.5669L20.7024 55ZM18.1106 47.8724L18.2034 47.8724L19.536 51.6659L16.78 51.6659L18.1106 47.8724Z" id="path4940" fill="#E0D2CB" fill-rule="evenodd" stroke="none" />
      <path d="M0.399994 62L18 62L35.6 62L35.6 63L18 63L0.399994 63L0.399994 62Z" id="path4942" fill="#000000" fill-opacity="0.2" fill-rule="evenodd" stroke="none" />
    </g>
  </g>
</svg>
